plasma/desktoptheme/Materia-Color/icons/kalarm.svg

<svg xmlns="http://www.w3.org/2000/svg" width="32" height="32" version="1.1">
 <defs id="materia">
  <style id="current-color-scheme" type="text/css">
   .ColorScheme-Background {color:#181818; } .ColorScheme-ButtonBackground { color:#343434; } .ColorScheme-Highlight { color:#4285f4; } .ColorScheme-Text { color:#dfdfdf; } .ColorScheme-ViewBackground { color:#242424; } .ColorScheme-NegativeText { color:#f44336; } .ColorScheme-PositiveText { color:#4caf50; } .ColorScheme-NeutralText { color:#ff9800; }
  </style>
 </defs>
 <g id="22-22-kalarm">
  <rect style="opacity:0.001" width="22" height="22" x="32" y="10"/>
  <path style="fill:currentColor" class="ColorScheme-Text" d="M 37,11.988281 V 12 c -1.656854,0 -3,1.343146 -3,3 6.29e-4,0.799718 0.320535,1.566084 0.888672,2.128906 0.88843,-1.8521 2.388234,-3.351634 4.240234,-4.240234 C 38.568023,12.316231 37.801415,11.992004 37,11.988281 Z M 49,12 c -0.799718,6.29e-4 -1.566084,0.320535 -2.128906,0.888672 1.852,0.8886 3.351834,2.388134 4.240234,4.240234 0.560987,-0.555651 0.880296,-1.310062 0.888672,-2.099609 0,-1.656854 -1.343146,-3 -3,-3 z m -6,2 c -3.854149,0 -7,3.145851 -7,7 0,3.854149 3.145851,7 7,7 3.854149,0 7,-3.145851 7,-7 0,-3.854149 -3.145851,-7 -7,-7 z m 0,2 c 2.773268,0 5,2.226732 5,5 0,2.773268 -2.226732,5 -5,5 -2.773268,0 -5,-2.226732 -5,-5 0,-2.773268 2.226732,-5 5,-5 z m 2.876953,2.667969 c -0.144229,-0.0132 -0.296151,0.0174 -0.441406,0.101562 l -2.804688,1.580078 C 42.182122,20.602224 42.11562,21.219818 42.5,21.5625 l 0.783203,1.357422 c 0.334354,0.597369 1.228486,0.471185 1.384766,-0.195313 0.04491,-0.189618 0.01376,-0.38921 -0.08594,-0.55664 l -0.521484,-0.902344 2.111328,-1.191406 c 0.177688,-0.09703 0.308879,-0.262026 0.363281,-0.457031 0.133967,-0.48548 -0.225515,-0.909622 -0.658203,-0.949219 z m 2.824219,7.935547 c -0.7072,0.717164 -1.543466,1.294333 -2.464844,1.701172 C 46.511169,28.737054 46.987674,28.999242 47.5,29 48.328427,29 49,28.328427 49,27.5 48.999579,27.176781 48.894767,26.862344 48.701172,26.603516 Z m -11.404297,0.0039 C 37.104772,26.865423 37.000695,27.178337 37,27.5 c 0,0.828427 0.671573,1.5 1.5,1.5 0.510493,-1.45e-4 0.985867,-0.259909 1.261719,-0.689453 -0.921536,-0.407422 -1.757813,-0.985261 -2.464844,-1.703125 z"/>
 </g>
 <g id="kalarm">
  <rect style="opacity:0.001" width="32" height="32" x="0" y="0"/>
  <path style="fill:currentColor" class="ColorScheme-Text" d="M 7.3417969 2.9628906 L 7.3417969 2.9804688 C 4.9485634 2.9804688 3.0097656 4.9212195 3.0097656 7.3144531 C 3.0106741 8.4696013 3.4723263 9.5757063 4.2929688 10.388672 C 5.5762564 7.7134162 7.7428575 5.5472052 10.417969 4.2636719 C 9.6078041 3.4368127 8.4993964 2.9682683 7.3417969 2.9628906 z M 24.675781 2.9804688 C 23.520633 2.9813773 22.414527 3.4430295 21.601562 4.2636719 C 24.276674 5.5472052 26.443317 7.7134158 27.726562 10.388672 C 28.536877 9.5860644 28.997668 8.4959257 29.009766 7.3554688 C 29.009766 4.9622352 27.069015 3.0234375 24.675781 3.0234375 L 24.675781 2.9804688 z M 16 6 C 10.494072 6 6 10.494072 6 16 C 6 21.505927 10.494072 26 16 26 C 21.505928 26 26 21.505927 26 16 C 26 10.494072 21.505928 6 16 6 z M 16 9 C 19.882576 9 23 12.117424 23 16 C 23 19.882575 19.882576 23 16 23 C 12.117424 23 9 19.882575 9 16 C 9 12.117424 12.117424 9 16 9 z M 19.693359 12.994141 C 19.506808 12.977061 19.308971 13.018089 19.121094 13.126953 L 15.494141 15.169922 C 14.91373 15.496662 14.827049 16.295046 15.324219 16.738281 L 16.337891 18.494141 C 16.770355 19.266798 17.92677 19.104258 18.128906 18.242188 C 18.186996 17.996931 18.146535 17.738042 18.017578 17.521484 L 17.34375 16.355469 L 20.074219 14.814453 C 20.304046 14.688951 20.474557 14.474882 20.544922 14.222656 C 20.7182 13.59472 20.253012 13.045358 19.693359 12.994141 z M 24.660156 24.539062 C 23.638644 25.574966 22.430488 26.408437 21.099609 26.996094 C 21.496602 27.620622 22.185755 27.998905 22.925781 28 C 24.122398 28 25.091797 27.030601 25.091797 25.833984 C 25.091189 25.367113 24.939792 24.912926 24.660156 24.539062 z M 7.4296875 24.544922 C 7.1522053 24.917598 7.0010039 25.36936 7 25.833984 C 7 27.030601 7.9693988 28 9.1660156 28 C 9.9033946 27.99979 10.589828 27.624358 10.988281 27.003906 C 9.6571733 26.415342 8.4509545 25.581837 7.4296875 24.544922 z"/>
 </g>
</svg>

<?xml version="1.0" encoding="UTF-8"?>
<svg width="32" height="32" version="1.1" xmlns="http://www.w3.org/2000/svg">
 <defs id="materia">
  <style id="current-color-scheme" type="text/css">.ColorScheme-Background {color:#181818; } .ColorScheme-ButtonBackground { color:#343434; } .ColorScheme-Highlight { color:#4285f4; } .ColorScheme-Text { color:#dfdfdf; } .ColorScheme-ViewBackground { color:#242424; } .ColorScheme-NegativeText { color:#f44336; } .ColorScheme-PositiveText { color:#4caf50; } .ColorScheme-NeutralText { color:#ff9800; }</style>
 </defs>
 <g id="22-22-kalarm">
  <rect x="32" y="10" width="22" height="22" opacity=".001"/>
  <path class="ColorScheme-Text" d="m37 11.988v0.011719c-1.6569 0-3 1.3431-3 3 6.29e-4 0.79972 0.32054 1.5661 0.88867 2.1289 0.88843-1.8521 2.3882-3.3516 4.2402-4.2402-0.56088-0.57244-1.3275-0.89667-2.1289-0.90039zm12 0.011719c-0.79972 6.29e-4 -1.5661 0.32054-2.1289 0.88867 1.852 0.8886 3.3518 2.3881 4.2402 4.2402 0.56099-0.55565 0.8803-1.3101 0.88867-2.0996 0-1.6569-1.3431-3-3-3zm-6 2c-3.8541 0-7 3.1459-7 7s3.1459 7 7 7 7-3.1459 7-7-3.1459-7-7-7zm0 2c2.7733 0 5 2.2267 5 5s-2.2267 5-5 5-5-2.2267-5-5 2.2267-5 5-5zm2.877 2.668c-0.14423-0.0132-0.29615 0.0174-0.44141 0.10156l-2.8047 1.5801c-0.44874 0.25262-0.51524 0.87021-0.13086 1.2129l0.7832 1.3574c0.33435 0.59737 1.2285 0.47118 1.3848-0.19531 0.04491-0.18962 0.01376-0.38921-0.08594-0.55664l-0.52148-0.90234 2.1113-1.1914c0.17769-0.09703 0.30888-0.26203 0.36328-0.45703 0.13397-0.48548-0.22552-0.90962-0.6582-0.94922zm2.8242 7.9355c-0.7072 0.71716-1.5435 1.2943-2.4648 1.7012 0.27484 0.43237 0.75135 0.69455 1.2637 0.69531 0.82843 0 1.5-0.67157 1.5-1.5-4.21e-4 -0.32322-0.10523-0.63766-0.29883-0.89648zm-11.404 0.0039c-0.1921 0.25801-0.29618 0.57092-0.29688 0.89258 0 0.82843 0.67157 1.5 1.5 1.5 0.51049-1.45e-4 0.98587-0.25991 1.2617-0.68945-0.92154-0.40742-1.7578-0.98526-2.4648-1.7031z" fill="currentColor"/>
 </g>
 <g id="kalarm">
  <rect width="32" height="32" opacity=".001"/>
  <path class="ColorScheme-Text" d="m7.3418 2.9629v0.017578c-2.3932 0-4.332 1.9408-4.332 4.334 9.085e-4 1.1551 0.46256 2.2613 1.2832 3.0742 1.2833-2.6753 3.4499-4.8415 6.125-6.125-0.81016-0.82686-1.9186-1.2954-3.0762-1.3008zm17.334 0.017578c-1.1551 9.085e-4 -2.2613 0.46256-3.0742 1.2832 2.6751 1.2835 4.8418 3.4497 6.125 6.125 0.81032-0.80261 1.2711-1.8927 1.2832-3.0332 0-2.3932-1.9408-4.332-4.334-4.332v-0.042969zm-8.6758 3.0195c-5.5059 0-10 4.4941-10 10 0 5.5059 4.4941 10 10 10s10-4.4941 10-10c0-5.5059-4.4941-10-10-10zm0 3c3.8826 0 7 3.1174 7 7 0 3.8826-3.1174 7-7 7s-7-3.1174-7-7c0-3.8826 3.1174-7 7-7zm3.6934 3.9941c-0.18655-0.01708-0.38439 0.023948-0.57226 0.13281l-3.627 2.043c-0.58041 0.32674-0.66709 1.1251-0.16992 1.5684l1.0137 1.7559c0.43246 0.77266 1.5889 0.61012 1.791-0.25195 0.05809-0.24526 0.017629-0.50415-0.11133-0.7207l-0.67383-1.166 2.7305-1.541c0.22983-0.1255 0.40034-0.33957 0.4707-0.5918 0.17328-0.62794-0.29191-1.1773-0.85156-1.2285zm4.9668 11.545c-1.0215 1.0359-2.2297 1.8694-3.5605 2.457 0.39699 0.62453 1.0861 1.0028 1.8262 1.0039 1.1966 0 2.166-0.9694 2.166-2.166-6.08e-4 -0.46687-0.152-0.92106-0.43164-1.2949zm-17.23 0.00586c-0.27748 0.37268-0.42868 0.82444-0.42969 1.2891 0 1.1966 0.9694 2.166 2.166 2.166 0.73738-2.1e-4 1.4238-0.37564 1.8223-0.99609-1.3311-0.58856-2.5373-1.4221-3.5586-2.459z" fill="currentColor"/>
 </g>
</svg>
